packages/merlin-www-assets/imports/brides/icons/meta-location.svg

<svg viewBox="0 0 7.94 12" xmlns="http://www.w3.org/2000/svg"><path d="m4 0a4 4 0 0 0 -4 4c0 .85.56 2.29 1.72 4.36.82 1.47 1.62 2.69 1.66 2.74l.62.9.59-.89c0-.05.84-1.28 1.66-2.74 1.13-2.08 1.69-3.52 1.69-4.37a4 4 0 0 0 -3.94-4zm0 6a2.06 2.06 0 1 1 2-2.06 2.06 2.06 0 0 1 -2 2.06z"/></svg>

<svg id="meta-location" xmlns="http://www.w3.org/2000/svg" viewBox="0 0 7.94 12"><title>location</title><path id="pin" d="M4,0A4,4,0,0,0,0,4C0,4.85.56,6.29,1.72,8.36c0.82,1.47,1.62,2.69,1.66,2.74L4,12l0.59-.89c0-.05.84-1.28,1.66-2.74C7.38,6.29,7.94,4.85,7.94,4A4,4,0,0,0,4,0ZM4,6A2.06,2.06,0,1,1,6,3.94,2.06,2.06,0,0,1,4,6Z"/></svg>
